X: 1
T: Bushindre
M: 4/4
L: 1/8
R: reel
K: Gmaj
AAAd Aedc|AAAd Aedc|BGGB dGBd|1 cBcd ecce:|2 BccB cBce||!
|:cccA GAcG|AccA GAcG|BBBA GABd|^dee^d =dece:|!
|:^eAce AceA|ceGc eGce|dGBd GBdG|1 ^e=edc Bcde:|2 BccB cBcd||!
